packages/foundations/assets/icons/functional/images/business & payment/voucher_24_filled.svg

<svg xmlns="http://www.w3.org/2000/svg" width="20" height="20" fill="none"><path fill="#1A1C1F" fill-rule="evenodd" d="M3.633 4.052c-.753.162-1.371.766-1.567 1.535-.06.232-.066.372-.066 1.417 0 1.08.005 1.173.067 1.339q.22.587.938.659c.62.063.976.426.978.998.001.571-.364.94-.995 1.003q-.703.071-.921.654c-.062.166-.067.259-.067 1.339 0 1.045.006 1.185.066 1.417a2.08 2.08 0 0 0 1.521 1.521c.251.065.395.066 6.413.066s6.162-.001 6.413-.066a2.08 2.08 0 0 0 1.521-1.521c.06-.232.066-.372.066-1.417 0-1.08-.005-1.173-.067-1.339q-.218-.583-.921-.654c-.453-.045-.734-.221-.902-.564a1.02 1.02 0 0 1 0-.878c.168-.342.441-.514.891-.559.472-.048.786-.27.932-.659.062-.166.067-.259.067-1.339 0-1.045-.006-1.185-.066-1.417a2.06 2.06 0 0 0-1.069-1.349c-.513-.253-.043-.237-6.882-.235-5.117.002-6.169.01-6.35.049M8.45 7.108q.295.151.454.459c.065.123.079.201.078.433 0 .243-.012.308-.089.454a1.3 1.3 0 0 1-.243.306c-.484.426-1.272.273-1.576-.306-.077-.146-.09-.211-.09-.454 0-.315.064-.485.261-.695.205-.217.447-.307.788-.293a.9.9 0 0 1 .417.096m3.767.692.699.7-2.208 2.208L8.5 12.917l-.708-.709-.708-.708 2.199-2.2c1.21-1.21 2.208-2.2 2.217-2.2.01 0 .332.315.717.7m.246 3.318c.195.106.333.248.445.458.06.114.075.194.074.424 0 .243-.012.308-.089.454a1 1 0 0 1-1.31.451 1.04 1.04 0 0 1-.491-.481c-.109-.205-.107-.645.004-.857.201-.387.523-.574.956-.555a.8.8 0 0 1 .411.106"/></svg>

<svg width="20" height="20" viewBox="0 0 20 20" fill="none" xmlns="http://www.w3.org/2000/svg"><path d="M3.633 4.052 C 2.880 4.214,2.262 4.818,2.066 5.587 C 2.006 5.819,2.000 5.959,2.000 7.004 C 2.000 8.084,2.005 8.177,2.067 8.343 C 2.213 8.734,2.526 8.954,3.005 9.002 C 3.625 9.065,3.981 9.428,3.983 10.000 C 3.984 10.571,3.619 10.940,2.988 11.003 C 2.520 11.050,2.212 11.269,2.067 11.657 C 2.005 11.823,2.000 11.916,2.000 12.996 C 2.000 14.041,2.006 14.181,2.066 14.413 C 2.260 15.171,2.829 15.740,3.587 15.934 C 3.838 15.999,3.982 16.000,10.000 16.000 C 16.018 16.000,16.162 15.999,16.413 15.934 C 17.171 15.740,17.740 15.171,17.934 14.413 C 17.994 14.181,18.000 14.041,18.000 12.996 C 18.000 11.916,17.995 11.823,17.933 11.657 C 17.788 11.269,17.480 11.050,17.012 11.003 C 16.559 10.958,16.278 10.782,16.110 10.439 C 15.977 10.170,15.977 9.830,16.110 9.561 C 16.278 9.219,16.551 9.047,17.001 9.002 C 17.473 8.954,17.787 8.732,17.933 8.343 C 17.995 8.177,18.000 8.084,18.000 7.004 C 18.000 5.959,17.994 5.819,17.934 5.587 C 17.782 4.991,17.390 4.496,16.865 4.238 C 16.352 3.985,16.822 4.001,9.983 4.003 C 4.866 4.005,3.814 4.013,3.633 4.052 M8.450 7.108 C 8.648 7.210,8.797 7.361,8.904 7.567 C 8.969 7.690,8.983 7.768,8.982 8.000 C 8.982 8.243,8.970 8.308,8.893 8.454 C 8.843 8.548,8.734 8.686,8.650 8.760 C 8.166 9.186,7.378 9.033,7.074 8.454 C 6.997 8.308,6.984 8.243,6.984 8.000 C 6.984 7.685,7.048 7.515,7.245 7.305 C 7.450 7.088,7.692 6.998,8.033 7.012 C 8.222 7.020,8.324 7.043,8.450 7.108 M12.217 7.800 L 12.916 8.500 10.708 10.708 L 8.500 12.917 7.792 12.208 L 7.084 11.500 9.283 9.300 C 10.493 8.090,11.491 7.100,11.500 7.100 C 11.510 7.100,11.832 7.415,12.217 7.800 M12.463 11.118 C 12.658 11.224,12.796 11.366,12.908 11.576 C 12.968 11.690,12.983 11.770,12.982 12.000 C 12.982 12.243,12.970 12.308,12.893 12.454 C 12.641 12.934,12.064 13.133,11.583 12.905 C 11.369 12.804,11.213 12.651,11.092 12.424 C 10.983 12.219,10.985 11.779,11.096 11.567 C 11.297 11.180,11.619 10.993,12.052 11.012 C 12.235 11.020,12.327 11.044,12.463 11.118 " fill="#1A1C1F" stroke="none" fill-rule="evenodd"></path></svg>
